src/topics/icons/ember.svg

<svg height="213" preserveAspectRatio="xMidYMid" viewBox="0 0 512 213" width="512" xmlns="http://www.w3.org/2000/svg"><path d="m511.720614 146.402399c-1.243096-12.197876-10.100152-17.636419-18.413354-17.636419-3.80698 0-6.837026 1.087709-8.002428 1.553869l-1.631562.699242-1.398482 1.010015c-1.942338 1.476176-5.36085 3.496206-8.390896 4.583915-.155386-2.486191-.077694-5.671624.310774-8.313202l.077694-.466161c2.25311-21.443399-2.253112-33.9520482-13.363278-37.1374808-1.864644-.5438542-3.80698-.7769348-5.749318-.7769348-6.759332 0-12.74173 3.263126-16.626404 6.0600912-3.263126-4.1177542-8.701668-6.4485584-15.538694-6.4485584-10.177846 0-18.33566 4.7393018-21.288012 12.3532628-.310774.776934-.699242 1.942337-1.165402 3.496206-5.982398-13.2078908-18.180274-18.2579666-29.52352-18.2579666-10.7217 0-21.132626 4.1954476-25.0173 7.1477996-.155386.155387-.388468.2330806-.621548.466161-10.177844 7.225493-18.10258 16.31563-23.69651 27.27041-2.719272-9.478604-8.701668-18.33566-19.423368-25.0172992l-.155388-.155387c-.310774-.155387-.543854-.310774-.854628-.4661608 10.48862-18.646434 19.811836-43.3529592 14.217906-66.894082-5.904704-25.09499244-20.666464-28.82427924-28.979666-28.82427924-3.418512 0-6.914718.6215478-10.488618 1.8646434l-.233082.07769348-.23308.07769346c-15.616388 6.13778452-22.453414 15.383308-23.92959 17.5587253-1.55387 2.3308042-18.646434 28.280425-22.764188 66.2725342-.46616 4.1954476-.932322 8.5462822-1.398482 12.8971168-2.408498-3.4185128-6.370866-6.5262518-12.664038-8.4685888-1.942336-.6215478-3.962366-.8546282-5.982396-.8546282-8.623976 0-15.616389 5.2831564-19.345676 8.7793628l-.077693-.0776936c-3.263126-4.8169954-8.468589-7.691654-14.217906-7.9247344h-1.398483c-9.16783 0-16.471017 4.0400606-21.831866 8.6239758-3.418513-5.9823976-9.711685-9.7116844-17.092565-9.7116844-.621548 0-1.165402 0-1.709256.0776934h-1.243096c-10.177845 0-18.180273 4.8169954-21.443399 12.819423-.23308.621548-.543854 1.398483-.854628 2.408498-8.002428-9.9447646-18.1802732-14.6063732-31.8543248-14.6063732h-1.3207892c-8.5462822.155387-29.8342944 3.7292868-42.8867982 33.0974202-2.0200302 4.506222-3.5738998 9.090137-4.739302 13.596358-2.8746584-1.320789-5.5162366-1.631563-7.4585734-1.631563-6.8370259 0-11.96479524 3.884674-14.45098644 7.536267-2.02003034 2.952352-8.46858877 13.440972-5.2831563 23.69651 1.70925646 5.516237 5.67162368 9.711685 11.26555384 11.887102 4.894689 1.942337 11.1101669 3.80698 15.7717755 5.127769 2.8746586 6.526252 8.0024278 14.062519 17.0925644 20.977238 6.4485584 4.89469 14.6840668 7.38088 24.3957512 7.38088 16.3156298 0 32.0874054-7.070106 33.7966614-7.84704l.621548-.310774.155387-.155388c3.107739 3.263126 7.225493 5.59393 12.430956 6.603946 1.553869.310774 3.5739.543854 5.904704.543854 8.857056 0 14.994841-4.506222 20.666464-12.97481 4.661609 7.303186 13.130198 11.42094 23.152656 11.42094h.077693c.543855 0 1.087709.388468 1.709257.388468 5.283156 0 11.887102-1.864644 17.403338-10.721699 4.583915 8.235509 12.974811 12.974811 22.919575 12.974811 8.857056 0 16.54871-3.651594 17.947194-4.350836l.310772-.155386c2.952354-1.55387 5.438544-2.952352 7.380882-4.040062 6.603944 3.496208 16.626402 7.380882 28.901972 7.380882 2.097724 0 4.195448-.077694 6.293172-.310774l.543854-.077694.543854-.077694c26.027314-5.12777 42.964492-11.343247 53.064644-16.082549 7.070106 7.924735 18.33566 15.538695 34.418208 16.704097 1.78695.155386 3.651594.23308 5.438544.23308 13.20789 0 23.774204-3.729286 31.54355-7.84704 2.486192 2.641578 5.59393 5.050076 9.633992 6.681638 2.408498 1.010016 4.894688 1.476176 7.458574 1.476176 16.160242 0 23.69651-19.267982 25.794232-25.794233l3.884674-10.410926c3.418514 3.651593 7.769348 6.603945 13.285584 8.157815 3.030046.854628 6.293172 1.320789 9.633992 1.320789 17.791806 0 34.88437-12.586343 37.603642-14.684067 4.894688-4.040061 10.255538-12.353262 9.090136-23.774203" fill="#fff"/><path d="m348.727318 151.667375s-2.253112-7.924735 6.137784-23.230349c8.313202-15.227921 14.839454-6.914719 14.839454-6.914719s7.1478 7.769347-1.010016 19.345675c-8.157814 11.654021-19.967222 10.799393-19.967222 10.799393m-64.097118 11.032473c-9.556296 25.017299-32.786646 14.839454-32.786646 14.839454s-2.641578-8.93475 4.89469-34.029742c7.536266-25.017299 25.250378-15.227921 25.250378-15.227921s12.197876 9.40091 2.641578 34.418209m-17.325644-104.8084974s14.450986-37.6813354 17.947192-19.3456754c3.496208 18.3356602-30.300454 72.8764798-30.300454 72.8764798.310774-12.2755692 12.353262-53.5308044 12.353262-53.5308044m-206.6646434 93.7760244c.6215478-24.240364 16.4710166-34.806677 21.9872534-29.523521 5.5162368 5.283157 3.4962064 16.704097-6.9147192 23.851897-10.3332322 7.1478-15.0725342 5.671624-15.0725342 5.671624m437.8804254-3.962367c-.776936-8.157815-8.157816-5.12777-8.157816-5.12777s-11.809408 9.16783-22.220334 8.157815c-10.333232-1.087709-7.070106-24.240364-7.070106-24.240364s2.253112-21.288012-3.884674-23.074962c-6.137784-1.78695-13.67405 5.516237-13.67405 5.516237s-9.400912 10.410925-13.82944 23.618816l-1.243094.388467s1.398482-23.230349-.233082-28.513505c-1.243094-2.641578-12.430956-2.408498-14.217906 2.253111-1.864642 4.661608-10.799392 37.215174-11.42094 50.889226 0 0-17.481032 14.839454-32.786646 17.325645-15.305616 2.408498-18.957208-7.1478-18.957208-7.1478s41.566008-11.576328 40.089832-44.751441c-1.398482-33.1751142-33.485888-20.899545-37.13748-18.180274-3.496206 2.641579-22.220334 13.907132-27.73657 45.217603-.155388 1.087708-.543856 5.749317-.543856 5.749317s-16.082548 10.799393-25.017298 13.674052c0 0 25.017298-42.109864-5.516236-61.300152-13.82944-8.313202-24.861912 9.16783-24.861912 9.16783s41.332928-45.9945374 32.165098-84.9189682c-4.350834-18.4910471-13.596358-20.5110774-22.14264-17.4810319-12.897118 5.1277693-17.791806 12.5863429-17.791806 12.5863429s-16.704098 24.2403642-20.588772 60.2901366c-3.884674 36.0497726-9.556296 79.5581186-9.556296 79.5581186s-7.924736 7.769347-15.227922 8.157815c-7.303186.388467-4.04006-21.754173-4.04006-21.754173s5.671624-33.796662 5.283156-39.468286c-.388468-5.671623-.776934-8.779362-7.536268-10.799393-6.681638-2.02003-14.062518 6.526252-14.062518 6.526252s-19.345675 29.29044-20.977238 33.796662l-1.010016 1.864643-1.010015-1.243095s13.674052-39.934446.621548-40.478301c-13.052504-.621548-21.598786 14.217906-21.598786 14.217906s-14.839454 24.861912-15.461002 27.658877l-1.010015-1.243095s6.137785-28.901973 4.894689-36.049773c-1.243095-7.147799-7.924734-5.671623-7.924734-5.671623s-8.546283-1.010016-10.799393 4.506221c-2.253111 5.516237-10.410926 41.954477-11.420941 53.530804 0 0-21.3657058 15.305615-35.4282246 15.461002-14.062519.23308-12.586343-8.93475-12.586343-8.93475s51.5107736-17.636419 37.4482546-52.443095c-6.2931712-8.93475-13.6740512-11.731715-24.0072834-11.576328-10.4109258.23308-22.6088012 6.526252-30.9996966 25.250379-3.9623672 8.93475-5.5939302 17.403339-5.5939302 23.851897s-9.6339908 1.864643-14.5286798-2.253111c-4.894689-4.04006-7.691654 0-7.691654 0s-8.54628226 12.197876-.2330804 15.461002c8.3132018 3.263126 21.2103186 6.293171 21.2103186 6.293171 1.1654022 5.283157 4.6616086 13.907132 14.8394538 21.598786 15.227921 11.576329 44.5960546-1.78695 44.5960546-1.78695l12.0424884-7.147799s.388468 10.799393 9.16783 12.430956c8.779363 1.631563 12.430956-.155387 27.658877-37.137481 8.93475-18.957208 9.556298-17.947193 9.556298-17.947193l1.010015-.233081s-6.914719 36.20516-4.273141 45.994538 14.217906 8.779362 14.217906 8.779362 6.293171 2.253111 11.420941-15.694082c5.127769-17.947192 14.839453-36.67132 14.839453-36.67132h1.243096s-4.273141 36.049773 2.253111 47.859181c6.526251 11.809408 23.385735 3.496206 23.385735 3.496206s11.809408-6.215478 13.674052-8.080121c0 0 13.984826 11.809408 33.796662 9.633991 44.207588-8.70167 59.901668-20.511078 59.901668-20.511078s7.613962 19.190289 31.07739 20.977239c26.881944 2.02003 41.56601-14.917148 41.56601-14.917148s-.23308 10.95478 9.16783 14.839454c9.40091 3.884673 15.694082-16.626404 15.694082-16.626404l15.694082-42.03217h1.398482s.776936 26.881943 16.31563 31.388164c15.616388 4.428528 35.738998-11.110167 35.738998-11.110167s4.89469-3.263126 4.040062-11.42094" fill="#e24b31"/></svg>

<?xml version="1.0" encoding="UTF-8" standalone="no"?>
<svg width="512px" height="213px" viewBox="0 0 512 213" version="1.1" xmlns="http://www.w3.org/2000/svg" xmlns:xlink="http://www.w3.org/1999/xlink" preserveAspectRatio="xMidYMid">
	<g>
		<path d="M511.720614,146.402399 C510.477518,134.204523 501.620462,128.76598 493.30726,128.76598 C489.50028,128.76598 486.470234,129.853689 485.304832,130.319849 L483.67327,131.019091 L482.274788,132.029106 C480.33245,133.505282 476.913938,135.525312 473.883892,136.613021 C473.728506,134.12683 473.806198,130.941397 474.194666,128.299819 L474.27236,127.833658 C476.52547,106.390259 472.019248,93.8816098 460.909082,90.6961772 C459.044438,90.152323 457.102102,89.9192424 455.159764,89.9192424 C448.400432,89.9192424 442.418034,93.1823684 438.53336,95.9793336 C435.270234,91.8615794 429.831692,89.5307752 422.994666,89.5307752 C412.81682,89.5307752 404.659006,94.270077 401.706654,101.884038 C401.39588,102.660972 401.007412,103.826375 400.541252,105.380244 C394.558854,92.1723532 382.360978,87.1222774 371.017732,87.1222774 C360.296032,87.1222774 349.885106,91.317725 346.000432,94.270077 C345.845046,94.425464 345.611964,94.5031576 345.378884,94.736238 C335.20104,101.961731 327.276304,111.051868 321.682374,122.006648 C318.963102,112.528044 312.980706,103.670988 302.259006,96.9893488 L302.103618,96.8339618 C301.792844,96.6785748 301.559764,96.5231878 301.24899,96.367801 C311.73761,77.721367 321.060826,53.0148418 315.466896,29.473719 C309.562192,4.37872656 294.800432,0.649439758 286.48723,0.649439758 C283.068718,0.649439758 279.572512,1.27098756 275.998612,2.51408316 L275.76553,2.59177664 L275.53245,2.6694701 C259.916062,8.80725462 253.079036,18.0527781 251.60286,20.2281954 C250.04899,22.5589996 232.956426,48.5086204 228.838672,86.5007296 C228.372512,90.6961772 227.90635,95.0470118 227.44019,99.3978464 C225.031692,95.9793336 221.069324,92.8715946 214.776152,90.9292576 C212.833816,90.3077098 210.813786,90.0746294 208.793756,90.0746294 C200.16978,90.0746294 193.177367,95.3577858 189.44808,98.8539922 L189.370387,98.7762986 C186.107261,93.9593032 180.901798,91.0846446 175.152481,90.8515642 L173.753998,90.8515642 C164.586168,90.8515642 157.282981,94.8916248 151.922132,99.47554 C148.503619,93.4931424 142.210447,89.7638556 134.829567,89.7638556 C134.208019,89.7638556 133.664165,89.7638556 133.120311,89.841549 L131.877215,89.841549 C121.69937,89.841549 113.696942,94.6585444 110.433816,102.660972 C110.200736,103.28252 109.889962,104.059455 109.579188,105.06947 C101.57676,95.1247054 91.3989148,90.4630968 77.7248632,90.4630968 L76.404074,90.4630968 C67.8577918,90.6184838 46.5697796,94.1923836 33.5172758,123.560517 C31.4972456,128.066739 29.943376,132.650654 28.7779738,137.156875 C25.9033154,135.836086 23.2617372,135.525312 21.3194004,135.525312 C14.4823745,135.525312 9.35460516,139.409986 6.86841396,143.061579 C4.84838362,146.013931 -1.60017481,156.502551 1.58525766,166.758089 C3.29451412,172.274326 7.25688134,176.469774 12.8508115,178.645191 C17.7455005,180.587528 23.9609784,182.452171 28.622587,183.77296 C31.4972456,190.299212 36.6250148,197.835479 45.7151514,204.750198 C52.1637098,209.644888 60.3992182,212.131078 70.1109026,212.131078 C86.4265324,212.131078 102.198308,205.060972 103.907564,204.284038 L104.529112,203.973264 L104.684499,203.817876 C107.792238,207.081002 111.909992,209.411806 117.115455,210.421822 C118.669324,210.732596 120.689355,210.965676 123.020159,210.965676 C131.877215,210.965676 138.015,206.459454 143.686623,197.990866 C148.348232,205.294052 156.816821,209.411806 166.839279,209.411806 L166.916972,209.411806 C167.460827,209.411806 168.004681,209.800274 168.626229,209.800274 C173.909385,209.800274 180.513331,207.93563 186.029567,199.078575 C190.613482,207.314084 199.004378,212.053386 208.949142,212.053386 C217.806198,212.053386 225.497852,208.401792 226.896336,207.70255 L227.207108,207.547164 C230.159462,205.993294 232.645652,204.594812 234.58799,203.507102 C241.191934,207.00331 251.214392,210.887984 263.489962,210.887984 C265.587686,210.887984 267.68541,210.81029 269.783134,210.57721 L270.326988,210.499516 L270.870842,210.421822 C296.898156,205.294052 313.835334,199.078575 323.935486,194.339273 C331.005592,202.264008 342.271146,209.877968 358.353694,211.04337 C360.140644,211.198756 362.005288,211.27645 363.792238,211.27645 C377.000128,211.27645 387.566442,207.547164 395.335788,203.42941 C397.82198,206.070988 400.929718,208.479486 404.96978,210.111048 C407.378278,211.121064 409.864468,211.587224 412.428354,211.587224 C428.588596,211.587224 436.124864,192.319242 438.222586,185.792991 L442.10726,175.382065 C445.525774,179.033658 449.876608,181.98601 455.392844,183.53988 C458.42289,184.394508 461.686016,184.860669 465.026836,184.860669 C482.818642,184.860669 499.911206,172.274326 502.630478,170.176602 C507.525166,166.136541 512.886016,157.82334 511.720614,146.402399" fill="#FFFFFF"></path>
		<path d="M348.727318,151.667375 C348.727318,151.667375 346.474206,143.74264 354.865102,128.437026 C363.178304,113.209105 369.704556,121.522307 369.704556,121.522307 C369.704556,121.522307 376.852356,129.291654 368.69454,140.867982 C360.536726,152.522003 348.727318,151.667375 348.727318,151.667375 M284.6302,162.699848 C275.073904,187.717147 251.843554,177.539302 251.843554,177.539302 C251.843554,177.539302 249.201976,168.604552 256.738244,143.50956 C264.27451,118.492261 281.988622,128.281639 281.988622,128.281639 C281.988622,128.281639 294.186498,137.682549 284.6302,162.699848 M267.304556,57.8913506 C267.304556,57.8913506 281.755542,20.2100152 285.251748,38.5456752 C288.747956,56.8813354 254.951294,111.422155 254.951294,111.422155 C255.262068,99.1465858 267.304556,57.8913506 267.304556,57.8913506 M60.6399126,151.667375 C61.2614604,127.427011 77.1109292,116.860698 82.627166,122.143854 C88.1434028,127.427011 86.1233724,138.847951 75.7124468,145.995751 C65.3792146,153.143551 60.6399126,151.667375 60.6399126,151.667375 M498.520338,147.705008 C497.743402,139.547193 490.362522,142.577238 490.362522,142.577238 C490.362522,142.577238 478.553114,151.745068 468.142188,150.735053 C457.808956,149.647344 461.072082,126.494689 461.072082,126.494689 C461.072082,126.494689 463.325194,105.206677 457.187408,103.419727 C451.049624,101.632777 443.513358,108.935964 443.513358,108.935964 C443.513358,108.935964 434.112446,119.346889 429.683918,132.55478 L428.440824,132.943247 C428.440824,132.943247 429.839306,109.712898 428.207742,104.429742 C426.964648,101.788164 415.776786,102.021244 413.989836,106.682853 C412.125194,111.344461 403.190444,143.898027 402.568896,157.572079 C402.568896,157.572079 385.087864,172.411533 369.78225,174.897724 C354.476634,177.306222 350.825042,167.749924 350.825042,167.749924 C350.825042,167.749924 392.39105,156.173596 390.914874,122.998483 C389.516392,89.8233688 357.428986,102.098938 353.777394,104.818209 C350.281188,107.459788 331.55706,118.725341 326.040824,150.035812 C325.885436,151.12352 325.496968,155.785129 325.496968,155.785129 C325.496968,155.785129 309.41442,166.584522 300.47967,169.459181 C300.47967,169.459181 325.496968,127.349317 294.963434,108.159029 C281.133994,99.845827 270.101522,117.326859 270.101522,117.326859 C270.101522,117.326859 311.43445,71.3323216 302.26662,32.4078908 C297.915786,13.9168437 288.670262,11.8968134 280.12398,14.9268589 C267.226862,20.0546282 262.332174,27.5132018 262.332174,27.5132018 C262.332174,27.5132018 245.628076,51.753566 241.743402,87.8033384 C237.858728,123.853111 232.187106,167.361457 232.187106,167.361457 C232.187106,167.361457 224.26237,175.130804 216.959184,175.519272 C209.655998,175.907739 212.919124,153.765099 212.919124,153.765099 C212.919124,153.765099 218.590748,119.968437 218.20228,114.296813 C217.813812,108.62519 217.425346,105.517451 210.666012,103.49742 C203.984374,101.47739 196.603494,110.023672 196.603494,110.023672 C196.603494,110.023672 177.257819,139.314112 175.626256,143.820334 L174.61624,145.684977 L173.606225,144.441882 C173.606225,144.441882 187.280277,104.507436 174.227773,103.963581 C161.175269,103.342033 152.628987,118.181487 152.628987,118.181487 C152.628987,118.181487 137.789533,143.043399 137.167985,145.840364 L136.15797,144.597269 C136.15797,144.597269 142.295755,115.695296 141.052659,108.547496 C139.809564,101.399697 133.127925,102.875873 133.127925,102.875873 C133.127925,102.875873 124.581642,101.865857 122.328532,107.382094 C120.075421,112.898331 111.917606,149.336571 110.907591,160.912898 C110.907591,160.912898 89.5418852,176.218513 75.4793664,176.3739 C61.4168474,176.60698 62.8930234,167.43915 62.8930234,167.43915 C62.8930234,167.43915 114.403797,149.802731 100.341278,114.996055 C94.0481068,106.061305 86.6672268,103.26434 76.3339946,103.419727 C65.9230688,103.652807 53.7251934,109.945979 45.334298,128.670106 C41.3719308,137.604856 39.7403678,146.073445 39.7403678,152.522003 L39.7403678,152.522003 C39.7403678,152.522003 30.106377,154.386646 25.211688,150.268892 C20.316999,146.228832 17.520034,150.268892 17.520034,150.268892 C17.520034,150.268892 8.97375174,162.466768 17.2869536,165.729894 C25.6001554,168.99302 38.4972722,172.023065 38.4972722,172.023065 L38.4972722,172.023065 C39.6626744,177.306222 43.1588808,185.930197 53.336726,193.621851 C68.564647,205.19818 97.9327806,191.834901 97.9327806,191.834901 L109.975269,184.687102 C109.975269,184.687102 110.363737,195.486495 119.143099,197.118058 C127.922462,198.749621 131.574055,196.962671 146.801976,159.980577 C155.736726,141.023369 156.358274,142.033384 156.358274,142.033384 L157.368289,141.800303 C157.368289,141.800303 150.45357,178.005463 153.095148,187.794841 C155.736726,197.584219 167.313054,196.574203 167.313054,196.574203 C167.313054,196.574203 173.606225,198.827314 178.733995,180.880121 C183.861764,162.932929 193.573448,144.208801 193.573448,144.208801 L194.816544,144.208801 C194.816544,144.208801 190.543403,180.258574 197.069655,192.067982 C203.595906,203.87739 220.45539,195.564188 220.45539,195.564188 C220.45539,195.564188 232.264798,189.34871 234.129442,187.484067 C234.129442,187.484067 248.114268,199.293475 267.926104,197.118058 C312.133692,188.416388 327.827772,176.60698 327.827772,176.60698 C327.827772,176.60698 335.441734,195.797269 358.905162,197.584219 C385.787106,199.604249 400.471172,182.667071 400.471172,182.667071 C400.471172,182.667071 400.238092,193.621851 409.639002,197.506525 C419.039912,201.391198 425.333084,180.880121 425.333084,180.880121 L441.027166,138.847951 L442.425648,138.847951 C442.425648,138.847951 443.202584,165.729894 458.741278,170.236115 C474.357666,174.664643 494.480276,159.125948 494.480276,159.125948 C494.480276,159.125948 499.374966,155.862822 498.520338,147.705008" fill="#E24B31"></path>
	</g>
</svg>
